X: 107
T: Ballinasloe Fair
R: reel
M: 4/4
L: 1/8
K: Ador
A2{B}AB cBcA | GFGA GECE | A2{B}AB cBca | gedB cAA2 |
A2{B}AB cBcA | GFGA GECE | A2{B}AB cBca | gedB cdef ||
gc (3ccc gcac | gc (3ccc Bcde | gc (3ccc ac (3ccc | agab gede |
gc (3ccc gcac | gc (3ccc B2 (3dcB | AGAB cBca | gedB cAA2 ||
F: https://thesession.org/tunes/509#setting509

